flaticon/online-marketing/cursor.svg

<svg xmlns="http://www.w3.org/2000/svg" width="32" height="32" viewBox="0 0 24 24">
    <path d="M 22.386719 21.476562 L 18.34375 16.238281 L 20.621094 15.449219 C 20.78125 15.394531 20.898438 15.25 20.917969 15.082031 C 20.9375 14.910156 20.859375 14.746094 20.714844 14.652344 L 16.714844 12.101562 C 17.226562 11.195312 17.554688 10.203125 17.691406 9.152344 C 17.964844 7 17.386719 4.871094 16.0625 3.15625 C 14.738281 1.441406 12.824219 0.34375 10.671875 0.0664062 C 8.523438 -0.207031 6.394531 0.371094 4.675781 1.695312 C 2.960938 3.019531 1.863281 4.933594 1.585938 7.085938 C 1.3125 9.234375 1.890625 11.363281 3.214844 13.082031 C 4.539062 14.796875 6.453125 15.894531 8.605469 16.167969 C 8.957031 16.214844 9.308594 16.238281 9.65625 16.238281 C 10.347656 16.238281 11.035156 16.148438 11.707031 15.96875 L 13.164062 20.484375 C 13.214844 20.648438 13.355469 20.765625 13.527344 20.789062 C 13.695312 20.8125 13.863281 20.738281 13.957031 20.59375 L 15.296875 18.589844 L 19.34375 23.828125 C 19.414062 23.921875 19.519531 23.980469 19.636719 23.996094 C 19.65625 24 19.675781 24 19.695312 24 C 19.792969 24 19.890625 23.96875 19.96875 23.90625 L 22.304688 22.101562 C 22.5 21.949219 22.535156 21.671875 22.386719 21.476562 Z M 8.71875 15.285156 C 6.804688 15.039062 5.101562 14.0625 3.921875 12.535156 C 2.742188 11.007812 2.226562 9.113281 2.472656 7.199219 C 2.71875 5.285156 3.695312 3.578125 5.222656 2.398438 C 6.75 1.21875 8.644531 0.707031 10.558594 0.953125 C 12.472656 1.199219 14.175781 2.175781 15.359375 3.703125 C 16.539062 5.230469 17.050781 7.125 16.804688 9.039062 C 16.6875 9.957031 16.402344 10.824219 15.960938 11.621094 L 14.835938 10.902344 C 15.292969 10.050781 15.535156 9.097656 15.535156 8.117188 C 15.535156 4.867188 12.890625 2.222656 9.640625 2.222656 C 6.386719 2.222656 3.742188 4.867188 3.742188 8.117188 C 3.742188 11.371094 6.386719 14.015625 9.640625 14.015625 C 10.105469 14.015625 10.570312 13.960938 11.019531 13.851562 L 11.429688 15.121094 C 10.546875 15.347656 9.636719 15.402344 8.71875 15.285156 Z M 9.214844 8.253906 L 10.746094 13 C 10.382812 13.082031 10.015625 13.121094 9.640625 13.121094 C 6.878906 13.121094 4.636719 10.878906 4.636719 8.117188 C 4.636719 5.359375 6.878906 3.113281 9.640625 3.113281 C 12.398438 3.113281 14.644531 5.359375 14.644531 8.117188 C 14.644531 8.925781 14.449219 9.714844 14.082031 10.421875 L 9.878906 7.742188 C 9.71875 7.640625 9.515625 7.652344 9.367188 7.765625 C 9.21875 7.878906 9.15625 8.078125 9.214844 8.253906 Z M 19.777344 22.929688 L 15.625 17.554688 C 15.539062 17.445312 15.410156 17.382812 15.273438 17.382812 C 15.265625 17.382812 15.261719 17.382812 15.257812 17.382812 C 15.113281 17.386719 14.980469 17.460938 14.902344 17.582031 L 13.730469 19.335938 L 10.445312 9.160156 L 19.457031 14.910156 L 17.464844 15.601562 C 17.328125 15.648438 17.222656 15.757812 17.183594 15.894531 C 17.140625 16.03125 17.167969 16.179688 17.257812 16.292969 L 21.410156 21.667969 Z M 19.777344 22.929688"/>
</svg>

<svg xmlns="http://www.w3.org/2000/svg" width="32" height="32" viewBox="0 0 24 24">
    <path d="M22.387 21.477l-4.043-5.239 2.277-.789a.445.445 0 0 0 .094-.797l-4-2.55a8.09 8.09 0 0 0 .976-2.95 8.08 8.08 0 0 0-1.628-5.996 8.068 8.068 0 0 0-5.391-3.09 8.089 8.089 0 0 0-5.996 1.63 8.068 8.068 0 0 0-3.09 5.39 8.089 8.089 0 0 0 1.629 5.996 8.048 8.048 0 0 0 5.39 3.086 7.957 7.957 0 0 0 3.102-.2l1.457 4.516c.05.164.191.282.363.305a.439.439 0 0 0 .43-.195l1.34-2.004 4.047 5.238a.434.434 0 0 0 .351.172.438.438 0 0 0 .274-.094l2.336-1.804a.447.447 0 0 0 .082-.625zM8.719 15.285a7.178 7.178 0 0 1-4.797-2.75A7.175 7.175 0 0 1 2.472 7.2a7.186 7.186 0 0 1 2.75-4.8A7.173 7.173 0 0 1 10.56.952a7.195 7.195 0 0 1 4.8 2.75 7.173 7.173 0 0 1 1.446 5.336 7.178 7.178 0 0 1-.844 2.582l-1.125-.719a5.88 5.88 0 0 0 .7-2.785A5.902 5.902 0 0 0 9.64 2.223a5.902 5.902 0 0 0-5.899 5.894 5.903 5.903 0 0 0 7.278 5.735l.41 1.27a7.186 7.186 0 0 1-2.711.163zm.496-7.031L10.746 13a5.006 5.006 0 0 1-6.11-4.883 5.009 5.009 0 0 1 5.005-5.004 5.011 5.011 0 0 1 5.004 5.004c0 .809-.196 1.598-.563 2.305l-4.203-2.68a.447.447 0 0 0-.664.512zM19.777 22.93l-4.152-5.375a.446.446 0 0 0-.352-.172h-.015a.436.436 0 0 0-.356.199l-1.172 1.754L10.445 9.16l9.012 5.75-1.992.692a.44.44 0 0 0-.281.293.431.431 0 0 0 .074.398l4.152 5.375zm0 0"/>
</svg>
